dist/umweltatlas/resources/img/logo-umweltatlas.svg

<?xml version="1.0" encoding="UTF-8" standalone="no"?>
<svg
   width="150"
   height="125"
   viewBox="0 0 150 125"
   fill="none"
   version="1.1"
   id="svg16"
   sodipodi:docname="logo-umweltatlas_beta_schwarz.svg"
   inkscape:version="1.3.2 (091e20e, 2023-11-25, custom)"
   xmlns:inkscape="http://www.inkscape.org/namespaces/inkscape"
   xmlns:sodipodi="http://sodipodi.sourceforge.net/DTD/sodipodi-0.dtd"
   xmlns="http://www.w3.org/2000/svg"
   xmlns:svg="http://www.w3.org/2000/svg">
  <sodipodi:namedview
     id="namedview16"
     pagecolor="#ffffff"
     bordercolor="#666666"
     borderopacity="1.0"
     inkscape:showpageshadow="2"
     inkscape:pageopacity="0.0"
     inkscape:pagecheckerboard="0"
     inkscape:deskcolor="#d1d1d1"
     inkscape:zoom="8.24"
     inkscape:cx="75"
     inkscape:cy="94.720874"
     inkscape:window-width="1920"
     inkscape:window-height="1017"
     inkscape:window-x="-8"
     inkscape:window-y="-8"
     inkscape:window-maximized="1"
     inkscape:current-layer="svg16" />
  <g
     clip-path="url(#clip0_336_16022)"
     id="g16">
    <path
       d="m 74.0966,56.6696 v 2.7263 c -3.0981,0.0284 -6.1962,0.0568 -9.2944,0.0852 v -2.7676 c 3.1575,-0.031 6.4002,-0.0491 9.2944,-0.0439 z"
       fill="#000000"
       id="path1" />
    <path
       d="m 69.0621,69.5782 c 1.8641,-0.8236 3.6481,-1.0766 5.0345,-1.1153 v 14.9277 c 0,2.5663 -2.0809,4.6472 -4.6472,4.6472 -2.5663,0 -4.6472,-2.0809 -4.6472,-4.6472 V 72.5937 c 1.3942,-1.296 2.5379,-2.2539 4.2599,-3.0155 z"
       fill="#000000"
       id="path2" />
    <path
       d="m 84.6815,58.8021 v 2.7212 c -0.6712,-0.3563 -1.4019,-0.6868 -2.1945,-0.9811 -1.4432,-0.5344 -3.7822,-1.1928 -6.8416,-1.1618 -0.0852,0 -0.173,0.0026 -0.2582,0.0026 v -2.6979 c 1.0689,0.0335 2.5353,0.142 4.2599,0.5008 2.0473,0.4234 3.7539,1.0482 5.0344,1.6162 z"
       fill="#000000"
       id="path3" />
    <path
       d="m 84.6815,72.9346 v 10.4561 c 0,2.5662 -2.0809,4.6471 -4.6471,4.6471 -2.5663,0 -4.6472,-2.0809 -4.6472,-4.6471 V 68.4888 c 0.2427,0.0155 0.4596,0.0361 0.6454,0.0568 3.5629,0.4001 5.9432,2.0912 6.9708,2.8399 0.8055,0.5861 1.1489,0.9552 1.6781,1.5491 z"
       fill="#000000"
       id="path4" />
    <path
       d="M 26.4785,49.8278 4.32444,83.1325 H 0 L 22.4613,49.8278 0,16.5232 h 4.24441 z"
       fill="#cccccc"
       id="path5" />
    <path
       d="M 36.1448,49.8278 14.1999,83.1325 H 5.56908 L 27.7205,49.8278 5.48389,16.5232 h 8.09641 z"
       fill="#cccccc"
       id="path6" />
    <path
       d="m 123.521,49.957 22.155,33.3046 H 150 L 127.539,49.957 150,16.6523 h -4.244 z"
       fill="#cccccc"
       id="path7" />
    <path
       d="M 113.855,49.957 135.8,83.2616 h 8.631 L 122.28,49.957 144.516,16.6523 h -8.096 z"
       fill="#cccccc"
       id="path8" />
    <path
       d="m 97.332,50.0861 21.945,33.3047 h 14.052 L 111.178,50.0861 133.415,16.7815 h -13.518 z"
       fill="#000000"
       id="path9" />
    <path
       d="M 52.6676,49.957 30.7227,83.2616 H 16.6702 L 38.8216,49.957 16.585,16.6523 h 13.518 z"
       fill="#000000"
       id="path10" />
    <path
       d="m 74.6126,14.9742 c 4.135,0 7.4871,-3.3521 7.4871,-7.48711 C 82.0997,3.35208 78.7476,0 74.6126,0 c -4.135,0 -7.4871,3.35208 -7.4871,7.48709 0,4.13501 3.3521,7.48711 7.4871,7.48711 z"
       fill="#000000"
       id="path11" />
    <path
       d="m 92.4269,21.4287 v 18.2014 h -1.9363 c 0.0129,-0.8314 -0.0259,-1.9932 -0.2582,-3.3563 -0.8313,-4.8873 -3.426,-8.1248 -4.389,-9.2943 -0.7048,-0.8598 -4.2341,-5.0086 -10.5852,-6.9708 -4.2702,-1.3193 -7.9673,-1.0766 -10.0688,-0.7745 -0.5835,-0.8365 -1.3968,-1.8821 -2.4863,-2.969 h 23.7857 c 0.5629,-0.0362 1.6498,-0.0258 2.84,0.5163 0.3511,0.1601 1.1179,0.519 1.8072,1.2909 1.1411,1.2806 1.2702,2.8038 1.2909,3.3563 z"
       fill="#000000"
       id="path12" />
    <path
       d="m 116.05,80.9381 c -1.133,0.7229 -2.879,1.6756 -5.164,2.3236 -4.311,1.2212 -7.895,0.6093 -9.81,0.2582 -4.2214,-0.772 -7.113,-2.4605 -7.7455,-2.84 C 90.8856,79.2135 89.1506,77.5018 86.8761,75.2582 85.7298,74.1249 85.136,73.4459 84.6816,72.9347 84.1524,72.3409 83.809,71.9717 83.0035,71.3856 81.9759,70.6369 79.5956,68.9459 76.0327,68.5457 75.8469,68.525 75.63,68.5044 75.3873,68.4889 75.0155,68.4631 74.5792,68.4502 74.0964,68.4631 72.71,68.5018 70.926,68.7548 69.062,69.5784 c -1.722,0.7616 -2.8657,1.7194 -4.2599,3.0155 -0.2091,0.191 -0.4234,0.3898 -0.6454,0.5989 -2.2255,2.0861 -3.031,3.4131 -4.1308,4.6472 -3.6429,4.0921 -8.809,5.2745 -10.5852,5.6799 -6.5086,1.4871 -11.9613,-0.4183 -14.4579,-1.2909 -0.71,-0.2479 -1.2883,-0.4802 -1.6781,-0.6455 4.8201,-7.3141 9.6377,-14.6308 14.4578,-21.9449 5.6799,-0.0516 11.3597,-0.1058 17.0396,-0.1575 3.0981,-0.0284 6.1962,-0.0568 9.2943,-0.0852 0.4312,-0.0051 0.8598,-0.0103 1.2909,-0.0129 0.0852,0 0.173,-0.0026 0.2582,-0.0026 3.0594,-0.0309 5.3984,0.6274 6.8416,1.1618 0.7926,0.2944 1.5233,0.6248 2.1945,0.9811 2.0964,1.1024 3.63,2.4139 4.7763,3.4079 1.895,1.6446 1.6962,1.9131 4.389,4.389 2.2177,2.0396 3.3253,3.0594 4.9053,3.8726 1.2367,0.6377 3.5908,1.815 6.7128,1.5491 2.437,-0.2065 4.236,-1.2005 5.163,-1.8072 1.808,2.6669 3.615,5.3365 5.422,8.0034 z"
       fill="#1c509a"
       id="path13" />
    <path
       d="m 92.5558,47.6333 v 2.1945 H 76.9362 c 0.8106,-0.7616 2.6024,-2.654 3.3562,-5.6799 0.9656,-3.87 -0.4053,-7.043 -1.0327,-8.2616 -0.2013,-0.3924 -2.9122,-5.4372 -8.7779,-6.4544 -1.0715,-0.1859 -4.7892,-0.6764 -8.2616,1.5491 -1.2135,0.7771 -2.05,1.6652 -2.5818,2.3236 0.1342,-0.9191 0.5602,-4.5852 -1.8072,-8.0035 -0.2479,-0.3563 -0.5061,-0.6841 -0.7746,-0.9888 v -3.4905 c 0.963,0.7848 1.9105,1.784 2.7109,3.0594 1.1979,1.9079 1.6291,3.7487 1.8072,4.9053 1.1282,-0.7255 3.2969,-1.8899 6.1962,-2.0654 5.5301,-0.3331 9.3305,3.2039 10.327,4.1308 0.852,0.7926 4.8202,4.4871 4.9054,10.327 0.0413,2.9381 -0.9165,5.2255 -1.5491,6.4544 z"
       fill="#000000"
       id="path14" />
    <path
       d="m 101.85,39.63 c -1.807,2.667 -3.6142,5.3365 -5.4215,8.0035 H 81.4544 c 0.6325,-1.2289 1.5903,-3.5164 1.549,-6.4544 -0.0852,-5.8399 -4.0534,-9.5344 -4.9053,-10.327 -0.9966,-0.9269 -4.7969,-4.4639 -10.3271,-4.1308 -2.8993,0.1755 -5.0679,1.3399 -6.1962,2.0654 -0.1781,-1.1567 -0.6093,-2.9974 -1.8072,-4.9054 -0.8003,-1.2754 -1.7478,-2.2745 -2.7108,-3.0593 -2.068,-1.6834 -4.198,-2.3649 -5.0345,-2.6205 -1.1334,-0.346 -4.6497,-1.2703 -8.5198,0 -2.1764,0.7125 -3.8287,1.9105 -4.3889,2.3236 -1.0147,0.7461 -2.2978,1.7452 -2.84,2.3235 -1.549,-2.2384 -3.0981,-4.4742 -4.6471,-6.7125 1.3864,-1.2703 7.1618,-6.2737 15.7487,-6.19625 2.5301,0.02324 7.5413,0.50865 12.3924,3.87265 1.1463,0.7952 2.1196,1.6368 2.9355,2.4527 1.0895,1.0869 1.9027,2.1325 2.4862,2.969 2.1015,-0.3021 5.7986,-0.5448 10.0688,0.7745 2.6567,0.821 4.8228,2.0267 6.4906,3.2117 2.321,1.6472 3.6841,3.2582 4.0946,3.759 0.963,1.1696 3.5577,4.4071 4.389,9.2944 0.2324,1.3631 0.2711,2.5249 0.2582,3.3562 z"
       fill="#b0c8e4"
       id="path15" />
    <path
       d="m 109.467,70.9982 c -1.025,0.5731 -3.215,1.5929 -5.938,1.2909 -2.045,-0.2272 -3.45,-1.0947 -4.7766,-1.9364 -3.2298,-2.0473 -3.2892,-3.5008 -7.2289,-6.9707 -1.371,-1.2083 -2.7625,-2.4191 -4.9054,-3.6145 -0.4492,-0.2478 -1.1024,-0.5938 -1.9363,-0.9655 -1.2806,-0.568 -2.9871,-1.1928 -5.0344,-1.6162 -1.7246,-0.3589 -3.1911,-0.4673 -4.2599,-0.5009 -0.4673,-0.0155 -0.8572,-0.0155 -1.1618,-0.0155 h -0.1291 c -2.8941,-0.0051 -6.1368,0.0129 -9.2943,0.0439 -7.6317,0.0723 -14.778,0.204 -15.3615,0.2143 1.593,-2.4527 3.1833,-4.9053 4.7763,-7.358 -5.5069,-8.0034 -11.0164,-16.0069 -16.5233,-24.0103 0.6868,-0.932 1.9983,-2.4604 4.1309,-3.6145 3.6402,-1.9724 7.1488,-1.4922 8.2616,-1.2909 1.0611,0.1911 4.4328,0.8004 6.9707,3.6584 0.2685,0.3046 0.5267,0.6325 0.7745,0.9888 2.3675,3.4183 1.9415,7.0843 1.8073,8.0034 0.5318,-0.6583 1.3683,-1.5464 2.5817,-2.3235 3.4725,-2.2255 7.1902,-1.735 8.2616,-1.5491 5.8658,1.0172 8.5766,6.062 8.778,6.4544 0.6274,1.2186 1.9983,4.3916 1.0327,8.2616 -0.7539,3.0258 -2.5456,4.9183 -3.3563,5.6799 h 18.3331 c 4.7324,7.0559 9.4644,14.1144 14.1974,21.1704 z"
       fill="#4ba786"
       id="path16" />
  </g>
  <defs
     id="defs16">
    <clipPath
       id="clip0_336_16022">
      <rect
         width="150"
         height="88.037903"
         fill="#ffffff"
         id="rect16"
         x="0"
         y="0" />
    </clipPath>
  </defs>
  <text
     xml:space="preserve"
     style="font-style:normal;font-weight:normal;font-size:40px;line-height:1.25;font-family:sans-serif;letter-spacing:0px;word-spacing:0px;fill:#000000;fill-opacity:1;stroke:none"
     x="35.315536"
     y="119.66019"
     id="text16"><tspan
       sodipodi:role="line"
       id="tspan16"
       x="35.315536"
       y="119.66019"
       style="font-style:normal;font-variant:normal;font-weight:normal;font-stretch:normal;font-family:'Berlin Type';-inkscape-font-specification:'Berlin Type'">beta</tspan></text>
</svg>

<svg width="150" height="89" viewBox="0 0 150 89" fill="none" xmlns="http://www.w3.org/2000/svg">
<g clip-path="url(#clip0_336_16022)">
<path d="M74.0966 56.6696V59.3959C70.9985 59.4243 67.9004 59.4527 64.8022 59.4811V56.7135C67.9597 56.6825 71.2024 56.6644 74.0966 56.6696Z" fill="black"/>
<path d="M69.0621 69.5782C70.9262 68.7546 72.7102 68.5016 74.0966 68.4629V83.3906C74.0966 85.9569 72.0157 88.0378 69.4494 88.0378C66.8831 88.0378 64.8022 85.9569 64.8022 83.3906V72.5937C66.1964 71.2977 67.3401 70.3398 69.0621 69.5782Z" fill="black"/>
<path d="M84.6815 58.8021V61.5233C84.0103 61.167 83.2796 60.8365 82.487 60.5422C81.0438 60.0078 78.7048 59.3494 75.6454 59.3804C75.5602 59.3804 75.4724 59.383 75.3872 59.383V56.6851C76.4561 56.7186 77.9225 56.8271 79.6471 57.1859C81.6944 57.6093 83.401 58.2341 84.6815 58.8021Z" fill="black"/>
<path d="M84.6815 72.9346V83.3907C84.6815 85.9569 82.6006 88.0378 80.0344 88.0378C77.4681 88.0378 75.3872 85.9569 75.3872 83.3907V68.4888C75.6299 68.5043 75.8468 68.5249 76.0326 68.5456C79.5955 68.9457 81.9758 70.6368 83.0034 71.3855C83.8089 71.9716 84.1523 72.3407 84.6815 72.9346Z" fill="black"/>
<path d="M26.4785 49.8278L4.32444 83.1325H0L22.4613 49.8278L0 16.5232H4.24441L26.4785 49.8278Z" fill="#CCCCCC"/>
<path d="M36.1448 49.8278L14.1999 83.1325H5.56908L27.7205 49.8278L5.48389 16.5232H13.5803L36.1448 49.8278Z" fill="#CCCCCC"/>
<path d="M123.521 49.957L145.676 83.2616H150L127.539 49.957L150 16.6523H145.756L123.521 49.957Z" fill="#CCCCCC"/>
<path d="M113.855 49.957L135.8 83.2616H144.431L122.28 49.957L144.516 16.6523H136.42L113.855 49.957Z" fill="#CCCCCC"/>
<path d="M97.332 50.0861L119.277 83.3908H133.329L111.178 50.0861L133.415 16.7815H119.897L97.332 50.0861Z" fill="black"/>
<path d="M52.6676 49.957L30.7227 83.2616H16.6702L38.8216 49.957L16.585 16.6523H30.103L52.6676 49.957Z" fill="black"/>
<path d="M74.6126 14.9742C78.7476 14.9742 82.0997 11.6221 82.0997 7.48709C82.0997 3.35208 78.7476 0 74.6126 0C70.4776 0 67.1255 3.35208 67.1255 7.48709C67.1255 11.6221 70.4776 14.9742 74.6126 14.9742Z" fill="black"/>
<path d="M92.4269 21.4287V39.6301H90.4906C90.5035 38.7987 90.4647 37.6369 90.2324 36.2738C89.4011 31.3865 86.8064 28.149 85.8434 26.9795C85.1386 26.1197 81.6093 21.9709 75.2582 20.0087C70.988 18.6894 67.2909 18.9321 65.1894 19.2342C64.6059 18.3977 63.7926 17.3521 62.7031 16.2652H86.4888C87.0517 16.229 88.1386 16.2394 89.3288 16.7815C89.6799 16.9416 90.4467 17.3005 91.136 18.0724C92.2771 19.353 92.4062 20.8762 92.4269 21.4287Z" fill="black"/>
<path d="M116.05 80.9381C114.917 81.661 113.171 82.6137 110.886 83.2617C106.575 84.4829 102.991 83.871 101.076 83.5199C96.8546 82.7479 93.963 81.0594 93.3305 80.6799C90.8856 79.2135 89.1506 77.5018 86.8761 75.2582C85.7298 74.1249 85.136 73.4459 84.6816 72.9347C84.1524 72.3409 83.809 71.9717 83.0035 71.3856C81.9759 70.6369 79.5956 68.9459 76.0327 68.5457C75.8469 68.525 75.63 68.5044 75.3873 68.4889C75.0155 68.4631 74.5792 68.4502 74.0964 68.4631C72.71 68.5018 70.926 68.7548 69.062 69.5784C67.34 70.34 66.1963 71.2978 64.8021 72.5939C64.593 72.7849 64.3787 72.9837 64.1567 73.1928C61.9312 75.2789 61.1257 76.6059 60.0259 77.84C56.383 81.9321 51.2169 83.1145 49.4407 83.5199C42.9321 85.007 37.4794 83.1016 34.9828 82.229C34.2728 81.9811 33.6945 81.7488 33.3047 81.5835C38.1248 74.2694 42.9424 66.9527 47.7625 59.6386C53.4424 59.587 59.1222 59.5328 64.8021 59.4811C67.9002 59.4527 70.9983 59.4243 74.0964 59.3959C74.5276 59.3908 74.9562 59.3856 75.3873 59.383C75.4725 59.383 75.5603 59.3804 75.6455 59.3804C78.7049 59.3495 81.0439 60.0078 82.4871 60.5422C83.2797 60.8366 84.0104 61.167 84.6816 61.5233C86.778 62.6257 88.3116 63.9372 89.4579 64.9312C91.3529 66.5758 91.1541 66.8443 93.8469 69.3202C96.0646 71.3598 97.1722 72.3796 98.7522 73.1928C99.9889 73.8305 102.343 75.0078 105.465 74.7419C107.902 74.5354 109.701 73.5414 110.628 72.9347C112.436 75.6016 114.243 78.2712 116.05 80.9381Z" fill="#1C509A"/>
<path d="M92.5558 47.6333V49.8278H76.9362C77.7468 49.0662 79.5386 47.1738 80.2924 44.1479C81.258 40.2779 79.8871 37.1049 79.2597 35.8863C79.0584 35.4939 76.3475 30.4491 70.4818 29.4319C69.4103 29.246 65.6926 28.7555 62.2202 30.981C61.0067 31.7581 60.1702 32.6462 59.6384 33.3046C59.7726 32.3855 60.1986 28.7194 57.8312 25.3011C57.5833 24.9448 57.3251 24.617 57.0566 24.3123V20.8218C58.0196 21.6066 58.9671 22.6058 59.7675 23.8812C60.9654 25.7891 61.3966 27.6299 61.5747 28.7865C62.7029 28.061 64.8716 26.8966 67.7709 26.7211C73.301 26.388 77.1014 29.925 78.0979 30.8519C78.9499 31.6445 82.9181 35.339 83.0033 41.1789C83.0446 44.117 82.0868 46.4044 81.4542 47.6333H92.5558Z" fill="black"/>
<path d="M101.85 39.63C100.043 42.297 98.2358 44.9665 96.4285 47.6335H81.4544C82.0869 46.4046 83.0447 44.1171 83.0034 41.1791C82.9182 35.3392 78.95 31.6447 78.0981 30.8521C77.1015 29.9252 73.3012 26.3882 67.771 26.7213C64.8717 26.8968 62.7031 28.0612 61.5748 28.7867C61.3967 27.63 60.9655 25.7893 59.7676 23.8813C58.9673 22.6059 58.0198 21.6068 57.0568 20.822C54.9888 19.1386 52.8588 18.4571 52.0223 18.2015C50.8889 17.8555 47.3726 16.9312 43.5025 18.2015C41.3261 18.914 39.6738 20.112 39.1136 20.5251C38.0989 21.2712 36.8158 22.2703 36.2736 22.8486C34.7246 20.6102 33.1755 18.3744 31.6265 16.1361C33.0129 14.8658 38.7883 9.8624 47.3752 9.93985C49.9053 9.96309 54.9165 10.4485 59.7676 13.8125C60.9139 14.6077 61.8872 15.4493 62.7031 16.2652C63.7926 17.3521 64.6058 18.3977 65.1893 19.2342C67.2908 18.9321 70.9879 18.6894 75.2581 20.0087C77.9148 20.8297 80.0809 22.0354 81.7487 23.2204C84.0697 24.8676 85.4328 26.4786 85.8433 26.9794C86.8063 28.149 89.401 31.3865 90.2323 36.2738C90.4647 37.6369 90.5034 38.7987 90.4905 39.63H101.85Z" fill="#B0C8E4"/>
<path d="M109.467 70.9982C108.442 71.5713 106.252 72.5911 103.529 72.2891C101.484 72.0619 100.079 71.1944 98.7524 70.3527C95.5226 68.3054 95.4632 66.8519 91.5235 63.382C90.1525 62.1737 88.761 60.9629 86.6181 59.7675C86.1689 59.5197 85.5157 59.1737 84.6818 58.802C83.4012 58.234 81.6947 57.6092 79.6474 57.1858C77.9228 56.8269 76.4563 56.7185 75.3875 56.6849C74.9202 56.6694 74.5303 56.6694 74.2257 56.6694H74.0966C71.2025 56.6643 67.9598 56.6823 64.8023 56.7133C57.1706 56.7856 50.0243 56.9173 49.4408 56.9276C51.0338 54.4749 52.6241 52.0223 54.2171 49.5696C48.7102 41.5662 43.2007 33.5627 37.6938 25.5593C38.3806 24.6273 39.6921 23.0989 41.8247 21.9448C45.4649 19.9724 48.9735 20.4526 50.0863 20.6539C51.1474 20.845 54.5191 21.4543 57.057 24.3123C57.3255 24.6169 57.5837 24.9448 57.8315 25.3011C60.199 28.7194 59.773 32.3854 59.6388 33.3045C60.1706 32.6462 61.0071 31.7581 62.2205 30.981C65.693 28.7555 69.4107 29.246 70.4821 29.4319C76.3479 30.4491 79.0587 35.4939 79.2601 35.8863C79.8875 37.1049 81.2584 40.2779 80.2928 44.1479C79.5389 47.1737 77.7472 49.0662 76.9365 49.8278H95.2696C100.002 56.8837 104.734 63.9422 109.467 70.9982Z" fill="#4BA786"/>
</g>
<defs>
<clipPath id="clip0_336_16022">
<rect width="150" height="88.0379" fill="white"/>
</clipPath>
</defs>
</svg>
